src/assets/opensea-blue.svg

<svg width="24" height="24" viewBox="0 0 24 24" fill="none" xmlns="http://www.w3.org/2000/svg">
<path d="M24 12C24 18.627 18.627 24 12 24C5.37296 24 0 18.627 0 12C0 5.37296 5.37296 0 12 0C18.6284 0 24 5.37296 24 12Z" fill="#2081E2"/>
<path d="M5.92029 12.4032L5.97207 12.3218L9.09375 7.43836C9.13935 7.36684 9.24663 7.37425 9.28114 7.45191C9.80266 8.62071 10.2527 10.0743 10.0418 10.9792C9.95183 11.3515 9.70527 11.8558 9.42786 12.3218C9.3921 12.3896 9.35266 12.4562 9.31074 12.5203C9.291 12.5499 9.25773 12.5672 9.22197 12.5672H6.01151C5.92522 12.5672 5.87469 12.4735 5.92029 12.4032Z" fill="white"/>
<path d="M19.8347 13.3107V14.0837C19.8347 14.1281 19.8075 14.1675 19.7681 14.1848C19.5264 14.2884 18.6992 14.6681 18.3552 15.1464C17.4774 16.3682 16.8067 18.1152 15.3075 18.1152H9.05306C6.83631 18.1152 5.03999 16.3128 5.03999 14.0886V14.0171C5.03999 13.9579 5.08807 13.9099 5.14727 13.9099H8.63386C8.7029 13.9099 8.75346 13.974 8.7473 14.0418C8.72263 14.2686 8.76455 14.5004 8.87181 14.7112C9.07895 15.1316 9.50799 15.3943 9.97157 15.3943H11.6976V14.0467H9.99127C9.90375 14.0467 9.85197 13.9456 9.90253 13.8741C9.92101 13.8458 9.94197 13.8162 9.96415 13.7829C10.1257 13.5536 10.3562 13.1972 10.5855 12.7916C10.7421 12.5179 10.8938 12.2257 11.0158 11.9323C11.0405 11.8793 11.0602 11.8251 11.0799 11.772C11.1132 11.6783 11.1477 11.5908 11.1724 11.5033C11.197 11.4293 11.2168 11.3516 11.2365 11.2789C11.2944 11.0298 11.3191 10.766 11.3191 10.4923C11.3191 10.385 11.3142 10.2728 11.3043 10.1656C11.2994 10.0484 11.2846 9.93133 11.2698 9.81421C11.2599 9.71064 11.2414 9.60832 11.2217 9.50106C11.197 9.34448 11.1625 9.18914 11.1231 9.03256L11.1095 8.97338C11.0799 8.86613 11.0553 8.76378 11.0207 8.65653C10.9234 8.31994 10.8111 7.992 10.6928 7.68501C10.6496 7.56296 10.6003 7.44584 10.551 7.32872C10.4783 7.1524 10.4043 6.99213 10.3365 6.84048C10.302 6.77144 10.2724 6.70856 10.2428 6.64445C10.2095 6.5717 10.175 6.49898 10.1405 6.42992C10.1158 6.3769 10.0874 6.3276 10.0677 6.27829L9.8569 5.88869C9.8273 5.83568 9.87663 5.7728 9.93455 5.78882L11.2538 6.14637H11.2575C11.2599 6.14637 11.2612 6.1476 11.2624 6.1476L11.4362 6.19568L11.6273 6.24992L11.6976 6.26965V5.48554C11.6976 5.10704 12.0009 4.80005 12.3757 4.80005C12.5631 4.80005 12.7332 4.87648 12.8553 5.00101C12.9773 5.12554 13.0538 5.29568 13.0538 5.48554V6.64938L13.1943 6.68882C13.2054 6.69253 13.2165 6.69746 13.2264 6.70485C13.2609 6.73074 13.3102 6.76898 13.3731 6.81581C13.4224 6.85528 13.4754 6.90336 13.5395 6.95266C13.6665 7.05501 13.8182 7.18693 13.9846 7.33856C14.029 7.3768 14.0722 7.41624 14.1116 7.4557C14.3261 7.65541 14.5665 7.88968 14.7959 8.14858C14.86 8.2213 14.9228 8.29528 14.987 8.37296C15.0511 8.45186 15.1189 8.52954 15.178 8.60722C15.2557 8.71077 15.3395 8.81802 15.4123 8.93024C15.4468 8.98325 15.4863 9.03749 15.5196 9.0905C15.6132 9.23229 15.6959 9.37901 15.7748 9.5257C15.808 9.59352 15.8426 9.66749 15.8722 9.74024C15.9597 9.93626 16.0287 10.136 16.0731 10.3357C16.0867 10.3789 16.0966 10.4257 16.1015 10.4676V10.4775C16.1163 10.5367 16.1212 10.5996 16.1261 10.6637C16.1459 10.8683 16.136 11.073 16.0916 11.2789C16.0731 11.3664 16.0485 11.449 16.0189 11.5366C15.9893 11.6204 15.9597 11.7079 15.9215 11.7905C15.8475 11.9619 15.76 12.1333 15.6564 12.2935C15.6231 12.3527 15.5837 12.4156 15.5442 12.4748C15.5011 12.5376 15.4567 12.5968 15.4172 12.6548C15.363 12.7288 15.305 12.8064 15.2459 12.8755C15.1928 12.9482 15.1386 13.021 15.0794 13.0851C14.9968 13.1824 14.9179 13.2749 14.8353 13.3637C14.786 13.4216 14.733 13.4808 14.6787 13.5338C14.6257 13.593 14.5715 13.646 14.5222 13.6953C14.4395 13.7779 14.3705 13.842 14.3126 13.8951L14.1769 14.0196C14.1572 14.0368 14.1313 14.0467 14.1042 14.0467H13.0538V15.3943H14.3754C14.6713 15.3943 14.9524 15.2895 15.1793 15.0971C15.257 15.0293 15.596 14.7359 15.9967 14.2933C16.0102 14.2785 16.0275 14.2674 16.0472 14.2625L19.6978 13.2071C19.7656 13.1874 19.8347 13.2392 19.8347 13.3107Z" fill="white"/>
</svg>

<svg width="24" height="24" fill="none" xmlns="http://www.w3.org/2000/svg"><path d="M24 12c0 6.627-5.373 12-12 12S0 18.627 0 12 5.373 0 12 0c6.628 0 12 5.373 12 12Z" fill="#2081E2"/><path d="m5.92 12.403.052-.081 3.122-4.884a.107.107 0 0 1 .187.014c.522 1.169.972 2.622.76 3.527-.09.373-.336.877-.613 1.343a2.466 2.466 0 0 1-.117.198.106.106 0 0 1-.089.047h-3.21a.107.107 0 0 1-.092-.164Z" fill="#fff"/><path d="M19.835 13.31v.774a.111.111 0 0 1-.067.1c-.242.104-1.069.484-1.413.962-.878 1.222-1.548 2.97-3.048 2.97H9.053a4.02 4.02 0 0 1-4.013-4.027v-.072c0-.06.048-.107.107-.107h3.487c.069 0 .12.064.113.132a1.19 1.19 0 0 0 .125.67c.207.42.636.682 1.1.682h1.726v-1.347H9.99a.11.11 0 0 1-.088-.173l.061-.091c.162-.23.392-.586.621-.991a7.75 7.75 0 0 0 .43-.86c.025-.053.045-.107.065-.16.033-.094.068-.181.092-.269.025-.074.045-.151.064-.224.058-.25.083-.513.083-.787 0-.107-.005-.22-.015-.326-.005-.118-.02-.235-.034-.352a3.667 3.667 0 0 0-.048-.313 5.314 5.314 0 0 0-.099-.468l-.013-.06c-.03-.107-.055-.21-.09-.316a11.938 11.938 0 0 0-.469-1.328c-.073-.177-.147-.337-.215-.489a6.854 6.854 0 0 1-.093-.196 7.048 7.048 0 0 0-.103-.214c-.024-.053-.053-.102-.072-.152l-.211-.39a.069.069 0 0 1 .078-.1l1.319.358h.004l.004.002.174.048.191.054.07.02v-.784c0-.379.304-.686.679-.686a.67.67 0 0 1 .48.201.69.69 0 0 1 .198.485v1.163l.14.04a.113.113 0 0 1 .032.016l.147.11c.05.04.102.088.167.138a10.064 10.064 0 0 1 .572.503c.214.2.454.434.684.693.064.072.127.146.191.224.064.079.132.157.191.234.078.104.161.211.234.323.035.053.074.107.108.16a5.6 5.6 0 0 1 .255.436c.033.068.068.141.097.214.088.196.157.396.201.596.014.043.024.09.029.132v.01c.014.059.02.122.024.186a1.989 1.989 0 0 1-.107.873c-.03.083-.06.17-.097.253a3.437 3.437 0 0 1-.266.504 2.316 2.316 0 0 1-.112.18c-.043.064-.087.123-.127.18a3.785 3.785 0 0 1-.171.222 8.164 8.164 0 0 1-.41.488 2.82 2.82 0 0 1-.157.17 6.526 6.526 0 0 1-.366.361l-.136.125a.11.11 0 0 1-.073.027h-1.05v1.347h1.321c.296 0 .577-.104.804-.297.078-.068.417-.361.818-.804a.102.102 0 0 1 .05-.03l3.65-1.056a.108.108 0 0 1 .138.104Z" fill="#fff"/></svg>
